X:1
T:Ecco che pur baciate
T:Domenico Obizzi
T:Source : Madrigali et arie a voce sola---Libro I ---Venetia---A/Vincenti---1627. Editor: André Vierendeels (21/02/16).
T:Notes : Original clefs C1, F4 Editorial accidentals above the staff Figures above the BC are notated in original print   
T:Ecco che pur baciate
T:©
T:©
T:©
T:©
T:©
C:Domenico Obizzi
Z:©
%%score 1 2
L:1/8
Q:1/4=120
M:4/4
K:F
V:1 treble nm="Soprano" snm="S"
V:2 bass nm="BC" snm="BC"
V:1
 B2 G2 z AB^F | G4 ^F2 B2 | GABB B2 A2 | B2 DF E2 ^FA | GAcB A4 | G4 z BdA | B2 Ad cded | c4 B4 | %8
w: Ec- co che pur ba-|cia- te, O|la- br'a- ven- tu- ro- *|se, d'u- na boc- ca gen-|til le vi- ve ro-|se, che pur ba-|cia- te, O la- br'a- ven- tu-|ro- se,|
 z2 DF E2 ^FA | G2 GB A2 =Bd | c2 d2 c2 B/c/d/G/ | A4 G4 | G3 A B2 BA | c2 cd _e2 fe | d4 d2 d2 | %15
w: d'u- na boc- ca gen-|til, d'u- na coc- ca gen-|til le vi- ve _ _ _|ro- se,|mà che pun- te mor-|da- ci, che pun- te mor-|da- ci, men-|
 GABc A2 d2- | d2 cB A4 | G2 B2 GABc | A2 F2 DEFG | E C/D/ E/F/G/A/ BG/A/ B/c/d/G/ | A2 cB A4 | %21
w: tre ch'io ba- ci'ohi me pas-|* sa- no'il co-|re, men- tre ch'io ba- ci'ohi|me, men- tre ch'io ba- ci'ohi|me pas- * * * * * * * * * * * *|* sa- no'il co-|
 G4 z4 | z8 | z2 B2 d2 A2 | B3 A GA/B/ AG- | F2 B2 GABe | c3 f d2 _e2- | e2 d_e c4 | %28
w: re,||son for- se|stra- li ba- * * * ci,|_ men- tre ch'io ba- ci'ohi|me, ohi me pas-|* sa- no'il co-|
 BdBd e/d/c/B/ AA | d/c/B/A/ GA/B/ cd/_e/ AB/c/ | ^F2 G2 G2 F2 | G4 z4 | z4 z2 d2- | d2 c2 c2 BA | %34
w: re, son for- se stra- * * * * li,|stra- * * * * * * * * * * * *|* li ba- *|ci,|ah|_ se fia col pia-|
 B2 B2 A2 AB | G6 B2 | ^F4 z4 | f6 _e2 | _e2 dc d2 c2 | c2 BA B2 B2- | B2 Bc A4 | A2 z D EE^FF | %42
w: cer mi- sto'il do- *|lo- *|re,|ah se|fia col pia- cer, se|fia col pia- cer mi-|* sto'il do- lo-|re, a- ma- re son le|
 G2 z A BBcc | d2 z D EE^FF | GAcB A4 | G8 |] %46
w: tue, a- ma- re son le|tue, a- ma- re son le|tue do- lez- ze'A- mo-|re.|
V:2
 G,,4 G,2 D,2 | _E,4 D,4 | _E,4 F,4 |"^b" B,,4 C,2 D,2 | _E,2 C,2 D,4 | G,,4 G,2 ^F,2 | %6
 G,2 D,2 _E,4 | F,4 B,,4 | B,,4 C,2 D,2 | G,,2 E,2 F,2 G,2 | C,2 =B,,2 C,2 _E,2 | D,4 G,,4 | %12
 G,,4 G,4 | F,4 C,4 | G,4 G,2 D,2 | _E,4 D,2 B,,2 | C,4 D,4 |"^b" G,,4 G,2 E,2 | F,4 B,,4 | %19
 C,4 G,,4 | D,2 C,2 D,4 |"^b" G,,4 z2 G,2 | B,2 ^F,2 G,3 F, | _E,4 D,4 |"^b" G,2 D,2 _E,4 | %25
 D,4 _E,4 | F,4 G,2 _E,2 | F,4 F,,4 | B,,2 G,,2 C,2 D,2 | B,,2 C,4 C,2 | D,2 _E,2 D,4 | G,,4 G,4- | %32
 G,2 F,2 F,2 _E,D, | _E,4 D,4 | G,,2 G,4 F,2 | F,2 _E,D, E,2 C,2 | D,4 B,,2 B,2- | %37
 B,2 A,2 A,2 G,F, | G,4 F,4 | _E,4 E,4 | C,4 D,4 | D,2 B,,2 C,2 D,2 | E,2 ^F,2 G,2 A,2 | %43
 B,2 B,,2 C,2 D,2 | _E,2 C,2 D,4 | G,,8 |] %46

